communes/67.svg

<?xml version="1.0" encoding="UTF-8" standalone="no"?>
<!-- Created with Inkscape (http://www.inkscape.org/) -->
<svg
   xmlns:svg="http://www.w3.org/2000/svg"
   xmlns="http://www.w3.org/2000/svg"
   version="1.0"
   width="211.7494"
   height="248.03148"
   id="svg2780">
  <defs
     id="defs2782" />
  <g
     transform="translate(-16.575311,-804.3307)"
     id="layer1">
    <path
       d="M 17.575311,805.3307 L 21.388933,965.53723 C 24.112941,1079.9705 220.78707,1079.9705 223.51109,965.53723 L 227.32471,805.3307 L 17.575311,805.3307 z"
       id="path3282"
       style="fill:#ffffff;fill-opacity:1;fill-rule:evenodd;stroke:none;stroke-width:2;stroke-linecap:butt;stroke-miterlimit:4;stroke-dashoffset:0;stroke-opacity:1" />
    <path
       d="M 45.708238,35.923613 C 47.245204,29.09467 47.843096,27.437898 45.921091,25.811488 C 45.034063,25.060881 43.652611,24.355612 42.628897,25.562115 C 41.583273,26.794441 42.100709,28.552608 43.684301,29.390872 L 42.487787,35.433069 L 45.708238,35.923613 z"
       transform="translate(0,804.33069)"
       id="path2613"
       style="fill:#2163bd;fill-opacity:1;fill-rule:evenodd;stroke:#000000;stroke-width:1px;stroke-linecap:butt;stroke-linejoin:miter;stroke-opacity:1" />
    <rect
       width="4.3741632"
       height="5.2489958"
       x="251.55675"
       y="801.37134"
       transform="matrix(0.9733123,0.2294846,-0.2294846,0.9733123,0,0)"
       id="rect2607"
       style="opacity:1;color:#000000;fill:#2163bd;fill-opacity:1;fill-rule:evenodd;stroke:#000000;stroke-width:1.00000012px;stroke-linecap:butt;stroke-linejoin:miter;marker:none;marker-start:none;marker-mid:none;marker-end:none;stroke-miterlimit:4;stroke-dasharray:none;stroke-dashoffset:0;stroke-opacity:1;visibility:visible;display:inline;overflow:visible;enable-background:accumulate" />
    <path
       d="M 97.878773,99.779441 L 37.904646,99.779441 L 88.083932,81.699923 L 84.287963,89.181103 L 98.751578,89.181103 L 97.878773,99.779441 z"
       transform="translate(0,804.33069)"
       id="path2632"
       style="fill:#2163bd;fill-opacity:1;fill-rule:evenodd;stroke:#000000;stroke-width:1px;stroke-linecap:butt;stroke-linejoin:miter;stroke-opacity:1" />
    <rect
       width="4.3741632"
       height="5.2489958"
       x="269.16534"
       y="801.46442"
       transform="matrix(0.9733123,0.2294846,-0.2294846,0.9733123,0,0)"
       id="rect2601"
       style="opacity:1;color:#000000;fill:#2163bd;fill-opacity:1;fill-rule:evenodd;stroke:#000000;stroke-width:1.00000012px;stroke-linecap:butt;stroke-linejoin:miter;marker:none;marker-start:none;marker-mid:none;marker-end:none;stroke-miterlimit:4;stroke-dasharray:none;stroke-dashoffset:0;stroke-opacity:1;visibility:visible;display:inline;overflow:visible;enable-background:accumulate" />
    <path
       d="M 127.66517,45.424755 L 132.51433,47.099919 L 126.519,64.909563 C 138.39488,76.058218 131.79708,89.250998 107.04733,88.582675 L 109.94369,83.071873 C 128.98972,85.481256 129.62081,69.858585 119.73018,66.143894 L 127.66517,45.424755 z"
       transform="translate(0,804.33069)"
       id="path2630"
       style="fill:#2163bd;fill-opacity:1;fill-rule:evenodd;stroke:#000000;stroke-width:1px;stroke-linecap:butt;stroke-linejoin:miter;stroke-opacity:1" />
    <rect
       width="4.3741632"
       height="5.2489958"
       x="260.36102"
       y="801.41791"
       transform="matrix(0.9733123,0.2294846,-0.2294846,0.9733123,0,0)"
       id="rect2605"
       style="opacity:1;color:#000000;fill:#2163bd;fill-opacity:1;fill-rule:evenodd;stroke:#000000;stroke-width:1.00000012px;stroke-linecap:butt;stroke-linejoin:miter;marker:none;marker-start:none;marker-mid:none;marker-end:none;stroke-miterlimit:4;stroke-dasharray:none;stroke-dashoffset:0;stroke-opacity:1;visibility:visible;display:inline;overflow:visible;enable-background:accumulate" />
    <path
       d="M 99.628205,36.255433 L 106.29921,37.666098 C 101.5271,56.570651 90.379128,73.854747 73.442738,82.278374 C 87.2491,66.085117 97.662618,49.274694 99.628205,36.255433 z"
       transform="translate(0,804.33069)"
       id="path2628"
       style="fill:#2163bd;fill-opacity:1;fill-rule:evenodd;stroke:#000000;stroke-width:1px;stroke-linecap:butt;stroke-linejoin:miter;stroke-opacity:1" />
    <rect
       width="4.3741632"
       height="5.2489958"
       x="242.75244"
       y="801.32483"
       transform="matrix(0.9733123,0.2294846,-0.2294846,0.9733123,0,0)"
       id="rect2611"
       style="opacity:1;color:#000000;fill:#2163bd;fill-opacity:1;fill-rule:evenodd;stroke:#000000;stroke-width:1.00000012px;stroke-linecap:butt;stroke-linejoin:miter;marker:none;marker-start:none;marker-mid:none;marker-end:none;stroke-miterlimit:4;stroke-dasharray:none;stroke-dashoffset:0;stroke-opacity:1;visibility:visible;display:inline;overflow:visible;enable-background:accumulate" />
    <rect
       width="154.23189"
       height="7.2101436"
       x="227.12936"
       y="805.59723"
       transform="matrix(0.9733123,0.2294846,-0.2294846,0.9733123,0,0)"
       id="rect2603"
       style="opacity:1;color:#000000;fill:#de3921;fill-opacity:1;fill-rule:evenodd;stroke:#000000;stroke-width:1.00000012px;stroke-linecap:butt;stroke-linejoin:miter;marker:none;marker-start:none;marker-mid:none;marker-end:none;stroke-miterlimit:4;stroke-dasharray:none;stroke-dashoffset:0;stroke-opacity:1;visibility:visible;display:inline;overflow:visible;enable-background:accumulate" />
    <path
       d="M 90.987883,892.95746 L 90.987883,904.11013 L 175.09877,904.11013 L 175.09877,892.95746 L 169.19162,892.95746 C 173.91029,860.72281 191.29806,844.51401 214.22333,834.12728 L 213.34655,826.89762 C 196.07406,832.91442 179.92867,845.45223 171.55072,863.55352 L 164.87145,861.26119 C 170.59348,839.96095 180.3515,826.94513 192.37942,818.58858 L 188.67642,812.76958 C 163.19927,831.99384 155.1359,857.52438 153.76247,892.95746 L 159.44882,892.95746 L 90.987883,892.95746 z"
       id="path2510"
       style="fill:#de3921;fill-opacity:1;fill-rule:evenodd;stroke:#000000;stroke-width:1px;stroke-linecap:butt;stroke-linejoin:miter;stroke-opacity:1" />
    <path
       d="M 20.15625,109.53125 L 20.8125,137.0625 L 224.0625,137.0625 L 224.71875,109.53125 L 20.15625,109.53125 z"
       transform="translate(0,804.33069)"
       id="rect3407"
       style="opacity:1;color:#000000;fill:#215229;fill-opacity:1;fill-rule:evenodd;stroke:#000000;stroke-width:0.99921262;stroke-linecap:butt;stroke-linejoin:miter;marker:none;marker-start:none;marker-mid:none;marker-end:none;stroke-miterlimit:4;stroke-dasharray:none;stroke-dashoffset:0;stroke-opacity:1;visibility:visible;display:inline;overflow:visible;enable-background:accumulate" />
    <path
       d="M 165.75312,93.56369 A 1.586998,1.586998 0 1 1 162.57912,93.56369 A 1.586998,1.586998 0 1 1 165.75312,93.56369 z"
       transform="translate(0,804.5511)"
       id="path3416"
       style="opacity:1;color:#000000;fill:#000000;fill-opacity:1;fill-rule:evenodd;stroke:none;stroke-width:1pt;stroke-linecap:butt;stroke-linejoin:miter;marker:none;marker-start:none;marker-mid:none;marker-end:none;stroke-miterlimit:4;stroke-dasharray:none;stroke-dashoffset:0;stroke-opacity:1;visibility:visible;display:inline;overflow:visible;enable-background:accumulate" />
    <path
       d="M 165.75312,93.56369 A 1.586998,1.586998 0 1 1 162.57912,93.56369 A 1.586998,1.586998 0 1 1 165.75312,93.56369 z"
       transform="translate(-54.134264,804.5511)"
       id="path3420"
       style="opacity:1;color:#000000;fill:#000000;fill-opacity:1;fill-rule:evenodd;stroke:none;stroke-width:1pt;stroke-linecap:butt;stroke-linejoin:miter;marker:none;marker-start:none;marker-mid:none;marker-end:none;stroke-miterlimit:4;stroke-dasharray:none;stroke-dashoffset:0;stroke-opacity:1;visibility:visible;display:inline;overflow:visible;enable-background:accumulate" />
    <path
       d="M 165.75312,93.56369 A 1.586998,1.586998 0 1 1 162.57912,93.56369 A 1.586998,1.586998 0 1 1 165.75312,93.56369 z"
       transform="translate(-37.911618,767.47707)"
       id="path3422"
       style="opacity:1;color:#000000;fill:#000000;fill-opacity:1;fill-rule:evenodd;stroke:none;stroke-width:1pt;stroke-linecap:butt;stroke-linejoin:miter;marker:none;marker-start:none;marker-mid:none;marker-end:none;stroke-miterlimit:4;stroke-dasharray:none;stroke-dashoffset:0;stroke-opacity:1;visibility:visible;display:inline;overflow:visible;enable-background:accumulate" />
    <path
       d="M 165.75312,93.56369 A 1.586998,1.586998 0 1 1 162.57912,93.56369 A 1.586998,1.586998 0 1 1 165.75312,93.56369 z"
       transform="translate(-65.860415,761.21725)"
       id="path3418"
       style="opacity:1;color:#000000;fill:#000000;fill-opacity:1;fill-rule:evenodd;stroke:none;stroke-width:1pt;stroke-linecap:butt;stroke-linejoin:miter;marker:none;marker-start:none;marker-mid:none;marker-end:none;stroke-miterlimit:4;stroke-dasharray:none;stroke-dashoffset:0;stroke-opacity:1;visibility:visible;display:inline;overflow:visible;enable-background:accumulate" />
    <path
       d="M 64.375,150.78125 L 39.53125,211.96875 C 77.932638,258.7238 166.97361,258.7238 205.375,211.96875 L 180.53125,150.78125 L 151.5,222.34375 L 122.4375,150.78125 L 93.375,222.34375 L 64.375,150.78125 z"
       transform="translate(0,804.33069)"
       id="path3424"
       style="fill:#de3921;fill-opacity:1;fill-rule:evenodd;stroke:#000000;stroke-width:0.99921262;stroke-linecap:butt;stroke-linejoin:miter;stroke-miterlimit:4;stroke-dasharray:none;stroke-opacity:1" />
    <path
       d="M 17.575311,805.3307 L 21.388933,965.53723 C 24.112941,1079.9705 220.78707,1079.9705 223.51109,965.53723 L 227.32471,805.3307 L 17.575311,805.3307 z"
       id="path3565"
       style="fill:none;fill-opacity:1;fill-rule:evenodd;stroke:#000000;stroke-width:2;stroke-linecap:butt;stroke-miterlimit:4;stroke-dashoffset:0;stroke-opacity:1" />
  </g>
</svg>

<?xml version="1.0" encoding="UTF-8"?>
<svg version="1.0" viewBox="0 0 211.75 248.03" xmlns="http://www.w3.org/2000/svg">
<g transform="translate(-16.575 -804.33)">
<path d="m17.575 805.33 3.8136 160.21c2.724 114.43 199.4 114.43 202.12 0l3.8136-160.21h-209.75z" fill="#fff" fill-rule="evenodd"/>
<path transform="translate(0 804.33)" d="m45.708 35.924c1.537-6.8289 2.1349-8.4857 0.21285-10.112-0.88703-0.75061-2.2685-1.4559-3.2922-0.24937-1.0456 1.2323-0.52819 2.9905 1.0554 3.8288l-1.1965 6.0422 3.2205 0.49054z" fill="#2163bd" fill-rule="evenodd" stroke="#000" stroke-width="1px"/>
<rect transform="matrix(.97331 .22948 -.22948 .97331 0 0)" x="251.56" y="801.37" width="4.3742" height="5.249" color="#000000" fill="#2163bd" fill-rule="evenodd" stroke="#000" stroke-width="1px"/>
<path transform="translate(0 804.33)" d="m97.879 99.779h-59.974l50.179-18.08-3.796 7.4812h14.464l-0.8728 10.598z" fill="#2163bd" fill-rule="evenodd" stroke="#000" stroke-width="1px"/>
<rect transform="matrix(.97331 .22948 -.22948 .97331 0 0)" x="269.17" y="801.46" width="4.3742" height="5.249" color="#000000" fill="#2163bd" fill-rule="evenodd" stroke="#000" stroke-width="1px"/>
<path transform="translate(0 804.33)" d="m127.67 45.425 4.8492 1.6752-5.9953 17.81c11.876 11.149 5.2781 24.341-19.472 23.673l2.8964-5.5108c19.046 2.4094 19.677-13.213 9.7865-16.928l7.935-20.719z" fill="#2163bd" fill-rule="evenodd" stroke="#000" stroke-width="1px"/>
<rect transform="matrix(.97331 .22948 -.22948 .97331 0 0)" x="260.36" y="801.42" width="4.3742" height="5.249" color="#000000" fill="#2163bd" fill-rule="evenodd" stroke="#000" stroke-width="1px"/>
<path transform="translate(0 804.33)" d="m99.628 36.255 6.671 1.4107c-4.7721 18.905-15.92 36.189-32.856 44.612 13.806-16.193 24.22-33.004 26.185-46.023z" fill="#2163bd" fill-rule="evenodd" stroke="#000" stroke-width="1px"/>
<rect transform="matrix(.97331 .22948 -.22948 .97331 0 0)" x="242.75" y="801.32" width="4.3742" height="5.249" color="#000000" fill="#2163bd" fill-rule="evenodd" stroke="#000" stroke-width="1px"/>
<rect transform="matrix(.97331 .22948 -.22948 .97331 0 0)" x="227.13" y="805.6" width="154.23" height="7.2101" color="#000000" fill="#de3921" fill-rule="evenodd" stroke="#000" stroke-width="1px"/>
<path d="m90.988 892.96v11.153h84.111v-11.153h-5.9072c4.7187-32.235 22.106-48.443 45.032-58.83l-0.87678-7.2297c-17.272 6.0168-33.418 18.555-41.796 36.656l-6.6793-2.2923c5.722-21.3 15.48-34.316 27.508-42.673l-3.703-5.819c-25.477 19.224-33.541 44.755-34.914 80.188h5.6864-68.461z" fill="#de3921" fill-rule="evenodd" stroke="#000" stroke-width="1px"/>
<path transform="translate(0 804.33)" d="m20.156 109.53 0.65625 27.531h203.25l0.65625-27.531h-204.56z" color="#000000" fill="#215229" fill-rule="evenodd" stroke="#000" stroke-width=".99921"/>
<path transform="translate(0 804.55)" d="m165.75 93.564a1.587 1.587 0 1 1-3.174 0 1.587 1.587 0 1 1 3.174 0z" color="#000000" fill-rule="evenodd"/>
<path transform="translate(-54.134 804.55)" d="m165.75 93.564a1.587 1.587 0 1 1-3.174 0 1.587 1.587 0 1 1 3.174 0z" color="#000000" fill-rule="evenodd"/>
<path transform="translate(-37.912 767.48)" d="m165.75 93.564a1.587 1.587 0 1 1-3.174 0 1.587 1.587 0 1 1 3.174 0z" color="#000000" fill-rule="evenodd"/>
<path transform="translate(-65.86 761.22)" d="m165.75 93.564a1.587 1.587 0 1 1-3.174 0 1.587 1.587 0 1 1 3.174 0z" color="#000000" fill-rule="evenodd"/>
<path transform="translate(0 804.33)" d="m64.375 150.78-24.844 61.188c38.401 46.755 127.44 46.755 165.84 0l-24.844-61.188-29.031 71.562-29.062-71.562-29.062 71.562-29-71.562z" fill="#de3921" fill-rule="evenodd" stroke="#000" stroke-width=".99921"/>
<path d="m17.575 805.33 3.8136 160.21c2.724 114.43 199.4 114.43 202.12 0l3.8136-160.21h-209.75z" fill="none" stroke="#000" stroke-width="2"/>
</g>
</svg>
